assets/img/braze_icons/arrow-circle-up.svg

<svg fill="none" height="24" viewBox="0 0 24 24" width="24" xmlns="http://www.w3.org/2000/svg"><path clip-rule="evenodd" d="m12 23c6.0751 0 11-4.9249 11-11 0-6.07513-4.9249-11-11-11-6.07513-.000001-11 4.92487-11 11-.000001 6.0751 4.92487 11 11 11zm0-6c-.5523 0-1-.4477-1-1v-5.5858l-2.29289 2.2929c-.39053.3905-1.02369.3905-1.41422 0-.39052-.3905-.39052-1.0237 0-1.4142l4.00001-4.00001c.3905-.39052 1.0237-.39052 1.4142 0l4 4.00001c.3905.3905.3905 1.0237 0 1.4142s-1.0237.3905-1.4142 0l-2.2929-2.2929v5.5858c0 .5523-.4477 1-1 1z" fill="#801ed7" fill-rule="evenodd"/></svg>

<svg width="24" height="24" viewBox="0 0 24 24" fill="none" xmlns="http://www.w3.org/2000/svg">
<path fill-rule="evenodd" clip-rule="evenodd" d="M12 23C18.0751 23 23 18.0751 23 12C23 5.92487 18.0751 1 12 1C5.92487 0.999999 1 5.92487 1 12C0.999999 18.0751 5.92487 23 12 23ZM12 17C11.4477 17 11 16.5523 11 16V10.4142L8.70711 12.7071C8.31658 13.0976 7.68342 13.0976 7.29289 12.7071C6.90237 12.3166 6.90237 11.6834 7.29289 11.2929L11.2929 7.29289C11.6834 6.90237 12.3166 6.90237 12.7071 7.29289L16.7071 11.2929C17.0976 11.6834 17.0976 12.3166 16.7071 12.7071C16.3166 13.0976 15.6834 13.0976 15.2929 12.7071L13 10.4142V16C13 16.5523 12.5523 17 12 17Z" fill="#801ED7"/>
</svg>
